X:29
T:Petticoat Loose. ThoH.029
Q:1/2=90
M:3/2
L:1/8
B:Thompson's Compleat Collection of 120 Favourite Hornpipes.
Z:Village Music Project, Simon Wilson 2016
O:England.
K:Bb
B4d2fed2B2|G2E2C2cBA4|dfdB egec Acfa|bABed2c2B4:|
|:d4g2d2ecde|FAcd egfed4|B4d2f2=egfe|fcdB ABG=ef4-|
f2g_a gfgd ecAF|GEDEC2cBA4|dfdB egec Acfa|bABed2c2B4:|

